src/assets/selectIconsSpells/utilita_6.svg

<svg xmlns="http://www.w3.org/2000/svg" viewBox="0 0 512 512"><path d="M0 0h512v512H0z"/><path fill="#fff" d="M166.844 112.344c-42.01 38.554-97.815 75.023-147.53 86.03 39.097 14.38 89.036 18.718 134.717 9.157 53.264 31.33 128.095 32.185 184.876 0 44.99 15.297 96.346 13.18 149.688-9.31-59.564-9.606-125.004-51.588-155.25-85.876-55.502 39.62-111 32.146-166.5 0zm-133.72 114.03c17.33 29.572 48.467 79.248 89.75 131.064 27.24 34.188 76.606 31.093 129.97 31.093 49.298 0 102.29.706 127.625-31.092 37.724-47.35 68.59-92.143 88.217-122-124.874 84.53-316.773 93.18-435.562-9.063z"/></svg>

<?xml version="1.0" encoding="UTF-8" standalone="no"?>
<!DOCTYPE svg PUBLIC "-//W3C//DTD SVG 1.1//EN" "http://www.w3.org/Graphics/SVG/1.1/DTD/svg11.dtd">
<svg width="100%" height="100%" viewBox="0 0 512 512" version="1.1" xmlns="http://www.w3.org/2000/svg" xmlns:xlink="http://www.w3.org/1999/xlink" xml:space="preserve" xmlns:serif="http://www.serif.com/" style="fill-rule:evenodd;clip-rule:evenodd;stroke-linejoin:round;stroke-miterlimit:2;">
    <rect x="0" y="0" width="512" height="512" style="fill-rule:nonzero;"/>
    <path d="M166.844,112.344C124.834,150.898 69.029,187.367 19.314,198.374C58.411,212.754 108.35,217.092 154.031,207.531C207.295,238.861 282.126,239.716 338.907,207.531C383.897,222.828 435.253,220.711 488.595,198.221C429.031,188.615 363.591,146.633 333.345,112.345C277.843,151.965 222.345,144.491 166.845,112.345L166.844,112.344ZM33.124,226.374C50.454,255.946 81.591,305.622 122.874,357.438C150.114,391.626 199.48,388.531 252.844,388.531C302.142,388.531 355.134,389.237 380.469,357.439C418.193,310.089 449.059,265.296 468.686,235.439C343.812,319.969 151.913,328.619 33.124,226.376L33.124,226.374Z" style="fill:rgb(218,58,165);fill-rule:nonzero;"/>
</svg>
